src/assets/svg/2-home/2-flag.svg

<svg width="38" height="40" viewBox="0 0 38 40" fill="none" xmlns="http://www.w3.org/2000/svg">
<path d="M0.441895 40V0H21.7994L22.9824 5.05882H37.8019V26.8235H21.8616L20.6786 21.8235H4.17789V40H0.441895ZM25.0372 23.2941H34.0659V8.58824H19.8068L18.6238 3.52941H4.17789V18.2941H23.8542L25.0372 23.2941Z" fill="url(#paint0_linear_418_8)" fill-opacity="0.8"/>
<defs>
<linearGradient id="paint0_linear_418_8" x1="19" y1="10.5" x2="19.1219" y2="40" gradientUnits="userSpaceOnUse">
<stop stop-color="#FDA916"/>
<stop offset="1" stop-color="#E9E8E8" stop-opacity="0.6"/>
</linearGradient>
</defs>
</svg>

<svg width="38" height="40" fill="none" xmlns="http://www.w3.org/2000/svg"><path d="M.442 40V0h21.357l1.183 5.059h14.82v21.764h-15.94l-1.183-5H4.178V40H.442Zm24.595-16.706h9.029V8.588h-14.26L18.625 3.53H4.178v14.765h19.676l1.183 5Z" fill="url(#a)" fill-opacity=".8"/><defs><linearGradient id="a" x1="19" y1="10.5" x2="19.122" y2="40" gradientUnits="userSpaceOnUse"><stop stop-color="#FDA916"/><stop offset="1" stop-color="#E9E8E8" stop-opacity=".6"/></linearGradient></defs></svg>
